trunk/public/assets/images/icons/white/refresh/elmo.svg

<svg width="16" height="16" xmlns="http://www.w3.org/2000/svg" viewBox="0 0 16 16" shape-rendering="geometricPrecision" fill="#fff"><defs><mask id="a"><rect width="100%" height="100%"/><path d="M17.514 2.67l-.862-.55L16.65-1h-2.866v.558c-1.334-.3-2.758.103-3.723 1.067-1.568 1.57-1.553 4.14.036 5.732.78.777 1.81 1.205 2.9 1.205 1.072 0 2.078-.415 2.832-1.168C16.585 5.64 17 4.63 17 3.557V2.67h.514zm-3.373.888c0 .22-.057.54-.332.813-.443.444-1.23.427-1.69-.034-.475-.475-.49-1.234-.036-1.69.01-.01.02-.02.033-.03v.922h2.026v.02z" fill="#000"/></mask></defs><path d="M13.114 2.537h2.538V0h-.868v1.105c-1.204-.927-2.924-.863-4.016.227-1.187 1.188-1.162 3.12.035 4.317 1.2 1.197 3.13 1.223 4.32.036.584-.584.878-1.357.877-2.128h-.86c0 .558-.207 1.103-.626 1.522-.843.842-2.23.836-3.104-.036-.87-.872-.877-2.26-.035-3.105.73-.728 1.86-.82 2.72-.27h-.982v.867z" fill="#cb1800"/><path mask="url(#a)" d="M12.377 4.153c.106-.264.167-.55.167-.85 0-1.256-1.015-2.27-2.27-2.27-1.066 0-1.955.738-2.197 1.732C7.857 1.757 6.96 1 5.883 1c-1.242 0-2.25 1.01-2.25 2.25 0 .28.06.546.15.79-1.492.955-2.447 2.488-2.447 4.504C1.336 12.108 4.318 15 8 15c3.68 0 6.663-2.892 6.663-6.456 0-1.94-.887-3.432-2.286-4.39zm-4.42-.912c1.12 0 2.03 1.144 2.03 2.554 0 1.408-.91 2.55-2.03 2.55-1.12 0-2.028-1.142-2.028-2.55-.002-1.41.906-2.553 2.028-2.553zm.196 10.413c-4.655 0-4.948-4.637-4.948-4.637s2.093.635 4.792.635c2.976 0 5.086-.65 5.087-.65 0 0-.71 4.653-4.93 4.653z"/></svg>

<?xml version="1.0"?><!DOCTYPE svg PUBLIC "-//W3C//DTD SVG 1.1//EN" "http://www.w3.org/Graphics/SVG/1.1/DTD/svg11.dtd"><svg width="16px" height="16px" xmlns="http://www.w3.org/2000/svg" viewBox="0 0 16 16" shape-rendering="geometricPrecision" fill="#fff"><defs><mask id="refresh-path"><rect fill="#fff" width="100%" height="100%"/><path d="M17.514,2.671l-0.862-0.552L16.65-1h-2.866v0.558c-1.334-0.3-2.758,0.103-3.723,1.067 c-1.569,1.569-1.554,4.141,0.035,5.732c0.779,0.777,1.809,1.205,2.901,1.205c1.071,0,2.077-0.415,2.831-1.168 C16.585,5.639,17.001,4.631,17,3.557l0-0.886H17.514z M14.141,3.558c0,0.22-0.058,0.539-0.333,0.813 c-0.443,0.443-1.23,0.426-1.69-0.035c-0.475-0.475-0.49-1.234-0.036-1.689c0.011-0.011,0.021-0.022,0.033-0.031l0,0.922h2.026 V3.558z" fill="#000"/></mask></defs><path display="inline" d="M13.114,2.537h2.538L15.651,0h-0.867v1.105 c-1.204-0.927-2.924-0.863-4.016,0.227C9.581,2.52,9.606,4.451,10.803,5.649c1.201,1.198,3.131,1.224,4.319,0.037 C15.707,5.102,16.001,4.329,16,3.558l-0.859,0.001c-0.001,0.557-0.208,1.102-0.627,1.521c-0.843,0.842-2.231,0.836-3.104-0.036 c-0.871-0.872-0.877-2.26-0.035-3.105c0.729-0.727,1.86-0.818,2.721-0.268h-0.983L13.114,2.537z" fill="#cb1800"/><path mask="url(#refresh-path)" d="M12.377,4.153c0.106-0.264,0.167-0.551,0.167-0.85c0-1.256-1.015-2.27-2.269-2.27 c-1.067,0-1.956,0.738-2.198,1.732C7.856,1.757,6.96,1.001,5.883,1.001c-1.242,0-2.25,1.008-2.25,2.25 c0,0.279,0.059,0.545,0.15,0.789C2.291,4.995,1.336,6.528,1.336,8.544c0,3.564,2.982,6.455,6.664,6.455 c3.68,0,6.663-2.891,6.663-6.455C14.664,6.603,13.776,5.112,12.377,4.153z M7.958,3.241c1.12,0,2.029,1.143,2.029,2.553 c0,1.408-0.909,2.551-2.029,2.551c-1.121,0-2.029-1.143-2.029-2.551C5.928,4.384,6.836,3.241,7.958,3.241z M8.153,13.653 c-4.655,0-4.948-4.637-4.948-4.637c-0.001,0,2.093,0.635,4.792,0.635c2.976,0,5.086-0.652,5.087-0.652 C13.083,8.999,12.373,13.653,8.153,13.653z"/></svg>
